public/img/top/tex-1.svg

<svg fill="none" height="135" viewBox="0 0 124 135" width="124" xmlns="http://www.w3.org/2000/svg" xmlns:xlink="http://www.w3.org/1999/xlink"><filter id="a" color-interpolation-filters="sRGB" filterUnits="userSpaceOnUse" height="130.596" width="117.563" x=".463867" y="4.01709"><feFlood flood-opacity="0" result="BackgroundImageFix"/><feColorMatrix in="SourceAlpha" result="hardAlpha" type="matrix" values="0 0 0 0 0 0 0 0 0 0 0 0 0 0 0 0 0 0 127 0"/><feOffset dx="-6" dy="7"/><feGaussianBlur stdDeviation="5.5"/><feColorMatrix type="matrix" values="0 0 0 0 0.316369 0 0 0 0 0.366988 0 0 0 0 0.353496 0 0 0 0.25741 0"/><feBlend in2="BackgroundImageFix" mode="normal" result="effect1_dropShadow_555_972"/><feColorMatrix in="SourceAlpha" result="hardAlpha" type="matrix" values="0 0 0 0 0 0 0 0 0 0 0 0 0 0 0 0 0 0 127 0"/><feOffset dx="-3" dy="3"/><feGaussianBlur stdDeviation="2.5"/><feColorMatrix type="matrix" values="0 0 0 0 0 0 0 0 0 0 0 0 0 0 0 0 0 0 0.144615 0"/><feBlend in2="effect1_dropShadow_555_972" mode="normal" result="effect2_dropShadow_555_972"/><feBlend in="SourceGraphic" in2="effect2_dropShadow_555_972" mode="normal" result="shape"/></filter><path clip-rule="evenodd" d="m60.8102 13.3867 47.7818 27.149v54.298l-47.7818 27.1493-47.7819-27.1493v-54.298z" fill-rule="evenodd" stroke="#00e599" stroke-width=".72"/><g filter="url(#a)"><path d="m65.2457 8.01709 47.7823 27.14901v54.2979l-47.7823 27.149-47.7818-27.149v-54.2979z" fill="#000"/></g><path d="m65.2457 8.01709 47.7823 27.14901v54.2979l-47.7823 27.149-47.7818-27.149v-54.2979z" fill="#f0f5f6"/><path clip-rule="evenodd" d="m65.2472 36.1714 23.2589 13.0717v26.1435l-23.2589 13.0717-23.2589-13.0717v-26.1435z" fill="#fff" fill-rule="evenodd" stroke="#003" stroke-width=".54"/><g fill="#003"><path d="m57.1567 52.6325c.1857.1421.392.1523.6189.0305 2.1248-1.1979 4.5178-1.7968 7.179-1.7968 1.2584 0 2.4601.1422 3.605.4264s2.3363.741 3.574 1.3704c.0413.0203.1444.0304.3095.0304.2063 0 .3661-.0761.4796-.2284s.1599-.3248.1393-.5177c-.0207-.1929-.1238-.34-.3095-.4415-1.3203-.6497-2.6096-1.1268-3.868-1.4313-1.2584-.3046-2.5683-.4568-3.9299-.4568-2.8881 0-5.4874.6293-7.7979 1.8881-.2269.1421-.33.3299-.3094.5633.0206.2335.1238.4213.3094.5634z"/><path d="m54.0308 59.363c.2063 0 .361-.0812.4642-.2436 1.114-1.5429 2.589-2.7864 4.425-3.7305 1.836-.944 3.8422-1.411 6.0186-1.4008 2.1764.0101 4.1929.472 6.0495 1.3856 1.8154.9339 3.2698 2.1621 4.3631 3.6848.0826.1421.2115.2335.3868.2741.1754.0406.3404.0152.4951-.0762.1548-.0913.2528-.2233.294-.3959.0413-.1725.0103-.34-.0928-.5024-1.2171-1.7257-2.8314-3.1011-4.8428-4.1264-2.0113-1.0252-4.2238-1.5379-6.6374-1.5379-2.4137 0-4.6313.5177-6.653 1.5531-1.9598.9948-3.5689 2.3855-4.8273 4.1721-.1444.2436-.1598.4618-.0464.6547.1135.1929.3146.2893.6034.2893z"/><path d="m68.6985 74.9549c.1238 0 .2527-.0457.3868-.1371.1341-.0913.2166-.2182.2476-.3806.0309-.1625.0103-.3198-.0619-.4721-.0722-.1522-.2011-.2385-.3868-.2588-.9283-.2436-1.7174-.5431-2.3672-.8984-.6498-.3552-1.2739-.8273-1.8721-1.416-.784-.7715-1.3822-1.6495-1.7948-2.6342-.4126-.9846-.6189-2.015-.6189-3.091 0-.6902.2579-1.279.7736-1.7662.5158-.4873 1.1501-.7309 1.9031-.7309s1.3925.2436 1.9185.7309c.5261.4872.7891 1.076.7891 1.7662 0 .6903.1753 1.3146.526 1.8729s.8252.9999 1.4235 1.3247c.5982.3248 1.2583.4872 1.9804.4872.722 0 1.3873-.1624 1.9959-.4872.6085-.3248 1.0933-.7664 1.4543-1.3247s.5415-1.1826.5415-1.8729c0-1.7865-.4847-3.4614-1.4543-5.0247-.949-1.5023-2.2177-2.7001-3.8061-3.5934-1.671-.9136-3.4658-1.3704-5.3843-1.3704-2.0835 0-4.0072.538-5.771 1.614s-3.0583 2.5073-3.8835 4.2939c-.6189 1.1775-.9283 2.5479-.9283 4.1111s.33 3.2179.9902 4.9638c.0825.2233.2424.3502.4796.3807.2372.0304.4384-.0305.6034-.1827.165-.1523.2063-.3503.1238-.5939-.3507-.8933-.5983-1.7865-.7427-2.6798-.0825-.5888-.1237-1.2283-.1237-1.9186 0-1.3805.2475-2.5681.7426-3.5629.7633-1.543 1.9134-2.7814 3.4503-3.7153s3.2233-1.4008 5.0593-1.4008c1.6916 0 3.2594.3959 4.7035 1.1877 1.4234.7714 2.5477 1.817 3.3729 3.1366.8664 1.3399 1.2996 2.7915 1.2996 4.3547 0 .6903-.263 1.2689-.789 1.7359-.5261.4669-1.1707.7004-1.934.7004s-1.3977-.2335-1.9031-.7004c-.5054-.467-.7581-1.0405-.7581-1.7206s-.1805-1.3095-.5415-1.8881-.851-1.0354-1.4699-1.3704c-.6188-.335-1.279-.5024-1.9804-.5024s-1.3564.1674-1.9649.5024c-.6086.335-1.0882.7918-1.4389 1.3704s-.5261 1.2029-.5261 1.8728c0 1.2588.2373 2.4515.7117 3.5783.4745 1.1267 1.1656 2.1367 2.0733 3.03.7014.6903 1.4183 1.2435 2.1506 1.6597s1.6039.7562 2.6148 1.0202z"/><path d="m62.0454 74.7111c.2063 0 .3713-.0558.4951-.1675.1238-.1116.1857-.2588.1857-.4415s-.0619-.335-.1857-.4568c-.6189-.6497-1.0314-1.1065-1.2377-1.3704-.4126-.4872-.8046-1.0658-1.1759-1.7358-.7633-1.279-1.1449-2.9032-1.1449-4.8725 0-1.015.2681-1.9489.8045-2.8016s1.2584-1.5277 2.1661-2.0251 1.9082-.7461 3.0015-.7461c1.0934 0 2.0939.2487 3.0016.7461s1.6297 1.1724 2.1661 2.0251.8045 1.7866.8045 2.8016c0 .1828.0671.33.2012.4416.1341.1117.2939.1675.4796.1675s.3404-.0558.4642-.1675c.1237-.1116.1856-.2588.1856-.4416 0-1.2384-.3249-2.3803-.9747-3.4259-.6498-1.0455-1.5369-1.8728-2.6612-2.4819s-2.3466-.9136-3.6669-.9136c-1.3202 0-2.5425.3045-3.6668.9136s-2.0114 1.4364-2.6612 2.4819c-.6498 1.0456-.9747 2.1875-.9747 3.4259 0 2.0911.4641 3.9183 1.3924 5.4816.392.7308.784 1.35 1.1759 1.8576.3301.406.8046.9136 1.4234 1.5226.1238.1218.2579.1827.4023.1827z"/></g><path d="m71.2984 72.336c.557 0 1.083-.0406 1.5781-.1218.1857-.0203.3301-.1116.4333-.2741.1031-.1624.134-.3248.0928-.4872-.0413-.2436-.196-.3959-.4642-.4568-.1856-.0406-.4641-.0406-.8355 0l-.8045.0914c-1.0934 0-2.0939-.2538-3.0016-.7614-.8664-.4669-1.5472-1.1166-2.0423-1.9489-.4951-.8324-.7426-1.7359-.7426-2.7103 0-.1828-.0568-.335-.1702-.4568-.1135-.1219-.263-.1828-.4487-.1828s-.3404.066-.4642.198c-.1237.1319-.1856.2791-.1856.4416 0 1.0963.2681 2.1317.8045 3.1061.5364.9745 1.2893 1.7866 2.2589 2.4363 1.0727.7511 2.4033 1.1267 3.9918 1.1267z" fill="#00e599"/></svg>

<svg width="124" height="135" viewBox="0 0 124 135" fill="none" xmlns="http://www.w3.org/2000/svg">
<path fill-rule="evenodd" clip-rule="evenodd" d="M60.8102 13.3867L108.592 40.5357V94.8337L60.8102 121.983L13.0283 94.8337V40.5357L60.8102 13.3867Z" stroke="#00E599" stroke-width="0.72"/>
<g filter="url(#filter0_dd_555_972)">
<path d="M65.2457 8.01709L113.028 35.1661V89.464L65.2457 116.613L17.4639 89.464V35.1661L65.2457 8.01709Z" fill="black"/>
</g>
<path d="M65.2457 8.01709L113.028 35.1661V89.464L65.2457 116.613L17.4639 89.464V35.1661L65.2457 8.01709Z" fill="#F0F5F6"/>
<path fill-rule="evenodd" clip-rule="evenodd" d="M65.2472 36.1714L88.5061 49.2431V75.3866L65.2472 88.4583L41.9883 75.3866V49.2431L65.2472 36.1714Z" fill="white" stroke="#000033" stroke-width="0.54"/>
<path d="M57.1567 52.6325C57.3424 52.7746 57.5487 52.7848 57.7756 52.663C59.9004 51.4651 62.2934 50.8662 64.9546 50.8662C66.213 50.8662 67.4147 51.0084 68.5596 51.2926C69.7045 51.5768 70.8959 52.0336 72.1336 52.663C72.1749 52.6833 72.278 52.6934 72.4431 52.6934C72.6494 52.6934 72.8092 52.6173 72.9227 52.465C73.0362 52.3127 73.0826 52.1402 73.062 51.9473C73.0413 51.7544 72.9382 51.6073 72.7525 51.5058C71.4322 50.8561 70.1429 50.379 68.8845 50.0745C67.6261 49.7699 66.3162 49.6177 64.9546 49.6177C62.0665 49.6177 59.4672 50.247 57.1567 51.5058C56.9298 51.6479 56.8267 51.8357 56.8473 52.0691C56.8679 52.3026 56.9711 52.4904 57.1567 52.6325Z" fill="#000033"/>
<path d="M54.0308 59.363C54.2371 59.363 54.3918 59.2818 54.495 59.1194C55.609 57.5765 57.084 56.333 58.92 55.3889C60.756 54.4449 62.7622 53.9779 64.9386 53.9881C67.115 53.9982 69.1315 54.4601 70.9881 55.3737C72.8035 56.3076 74.2579 57.5358 75.3512 59.0585C75.4338 59.2006 75.5627 59.292 75.738 59.3326C75.9134 59.3732 76.0784 59.3478 76.2331 59.2564C76.3879 59.1651 76.4859 59.0331 76.5271 58.8605C76.5684 58.688 76.5374 58.5205 76.4343 58.3581C75.2172 56.6324 73.6029 55.257 71.5915 54.2317C69.5802 53.2065 67.3677 52.6938 64.9541 52.6938C62.5404 52.6938 60.3228 53.2115 58.3011 54.2469C56.3413 55.2417 54.7322 56.6324 53.4738 58.419C53.3294 58.6626 53.314 58.8808 53.4274 59.0737C53.5409 59.2666 53.742 59.363 54.0308 59.363Z" fill="#000033"/>
<path d="M68.6985 74.9549C68.8223 74.9549 68.9512 74.9092 69.0853 74.8178C69.2194 74.7265 69.3019 74.5996 69.3329 74.4372C69.3638 74.2747 69.3432 74.1174 69.271 73.9651C69.1988 73.8129 69.0699 73.7266 68.8842 73.7063C67.9559 73.4627 67.1668 73.1632 66.517 72.8079C65.8672 72.4527 65.2431 71.9806 64.6449 71.3919C63.8609 70.6204 63.2627 69.7424 62.8501 68.7577C62.4375 67.7731 62.2312 66.7427 62.2312 65.6667C62.2312 64.9765 62.4891 64.3877 63.0048 63.9005C63.5206 63.4132 64.1549 63.1696 64.9079 63.1696C65.6609 63.1696 66.3004 63.4132 66.8264 63.9005C67.3525 64.3877 67.6155 64.9765 67.6155 65.6667C67.6155 66.357 67.7908 66.9813 68.1415 67.5396C68.4922 68.0979 68.9667 68.5395 69.565 68.8643C70.1632 69.1891 70.8233 69.3515 71.5454 69.3515C72.2674 69.3515 72.9327 69.1891 73.5413 68.8643C74.1498 68.5395 74.6346 68.0979 74.9956 67.5396C75.3566 66.9813 75.5371 66.357 75.5371 65.6667C75.5371 63.8802 75.0524 62.2053 74.0828 60.642C73.1338 59.1397 71.8651 57.9419 70.2767 57.0486C68.6057 56.135 66.8109 55.6782 64.8924 55.6782C62.8089 55.6782 60.8852 56.2162 59.1214 57.2922C57.3576 58.3682 56.0631 59.7995 55.2379 61.5861C54.619 62.7636 54.3096 64.134 54.3096 65.6972C54.3096 67.2604 54.6396 68.9151 55.2998 70.661C55.3823 70.8843 55.5422 71.0112 55.7794 71.0417C56.0166 71.0721 56.2178 71.0112 56.3828 70.859C56.5478 70.7067 56.5891 70.5087 56.5066 70.2651C56.1559 69.3718 55.9083 68.4786 55.7639 67.5853C55.6814 66.9965 55.6402 66.357 55.6402 65.6667C55.6402 64.2862 55.8877 63.0986 56.3828 62.1038C57.1461 60.5608 58.2962 59.3224 59.8331 58.3885C61.37 57.4546 63.0564 56.9877 64.8924 56.9877C66.584 56.9877 68.1518 57.3836 69.5959 58.1754C71.0193 58.9468 72.1436 59.9924 72.9688 61.312C73.8352 62.6519 74.2684 64.1035 74.2684 65.6667C74.2684 66.357 74.0054 66.9356 73.4794 67.4026C72.9533 67.8695 72.3087 68.103 71.5454 68.103C70.7821 68.103 70.1477 67.8695 69.6423 67.4026C69.1369 66.9356 68.8842 66.3621 68.8842 65.682C68.8842 65.0019 68.7037 64.3725 68.3427 63.7939C67.9817 63.2153 67.4917 62.7585 66.8728 62.4235C66.254 62.0885 65.5938 61.9211 64.8924 61.9211C64.191 61.9211 63.536 62.0885 62.9275 62.4235C62.3189 62.7585 61.8393 63.2153 61.4886 63.7939C61.1379 64.3725 60.9625 64.9968 60.9625 65.6667C60.9625 66.9255 61.1998 68.1182 61.6742 69.245C62.1487 70.3717 62.8398 71.3817 63.7475 72.275C64.4489 72.9653 65.1658 73.5185 65.8981 73.9347C66.6304 74.3509 67.502 74.6909 68.5129 74.9549H68.6985Z" fill="#000033"/>
<path d="M62.0454 74.7111C62.2517 74.7111 62.4167 74.6553 62.5405 74.5436C62.6643 74.432 62.7262 74.2848 62.7262 74.1021C62.7262 73.9194 62.6643 73.7671 62.5405 73.6453C61.9216 72.9956 61.5091 72.5388 61.3028 72.2749C60.8902 71.7877 60.4982 71.2091 60.1269 70.5391C59.3636 69.2601 58.982 67.6359 58.982 65.6666C58.982 64.6516 59.2501 63.7177 59.7865 62.865C60.3229 62.0123 61.0449 61.3373 61.9526 60.8399C62.8603 60.3425 63.8608 60.0938 64.9541 60.0938C66.0475 60.0938 67.048 60.3425 67.9557 60.8399C68.8634 61.3373 69.5854 62.0123 70.1218 62.865C70.6582 63.7177 70.9263 64.6516 70.9263 65.6666C70.9263 65.8494 70.9934 65.9966 71.1275 66.1082C71.2616 66.2199 71.4214 66.2757 71.6071 66.2757C71.7928 66.2757 71.9475 66.2199 72.0713 66.1082C72.195 65.9966 72.2569 65.8494 72.2569 65.6666C72.2569 64.4282 71.932 63.2863 71.2822 62.2407C70.6324 61.1952 69.7453 60.3679 68.621 59.7588C67.4967 59.1497 66.2744 58.8452 64.9541 58.8452C63.6339 58.8452 62.4116 59.1497 61.2873 59.7588C60.163 60.3679 59.2759 61.1952 58.6261 62.2407C57.9763 63.2863 57.6514 64.4282 57.6514 65.6666C57.6514 67.7577 58.1155 69.5849 59.0438 71.1482C59.4358 71.879 59.8278 72.4982 60.2197 73.0058C60.5498 73.4118 61.0243 73.9194 61.6431 74.5284C61.7669 74.6502 61.901 74.7111 62.0454 74.7111Z" fill="#000033"/>
<path d="M71.2984 72.336C71.8554 72.336 72.3814 72.2954 72.8765 72.2142C73.0622 72.1939 73.2066 72.1026 73.3098 71.9401C73.4129 71.7777 73.4438 71.6153 73.4026 71.4529C73.3613 71.2093 73.2066 71.057 72.9384 70.9961C72.7528 70.9555 72.4743 70.9555 72.1029 70.9961L71.2984 71.0875C70.205 71.0875 69.2045 70.8337 68.2968 70.3261C67.4304 69.8592 66.7496 69.2095 66.2545 68.3772C65.7594 67.5448 65.5119 66.6413 65.5119 65.6669C65.5119 65.4841 65.4551 65.3319 65.3417 65.2101C65.2282 65.0882 65.0787 65.0273 64.893 65.0273C64.7073 65.0273 64.5526 65.0933 64.4288 65.2253C64.3051 65.3572 64.2432 65.5044 64.2432 65.6669C64.2432 66.7632 64.5113 67.7986 65.0477 68.773C65.5841 69.7475 66.337 70.5596 67.3066 71.2093C68.3793 71.9604 69.7099 72.336 71.2984 72.336Z" fill="#00E599"/>
<defs>
<filter id="filter0_dd_555_972" x="0.463867" y="4.01709" width="117.563" height="130.596" filterUnits="userSpaceOnUse" color-interpolation-filters="sRGB">
<feFlood flood-opacity="0" result="BackgroundImageFix"/>
<feColorMatrix in="SourceAlpha" type="matrix" values="0 0 0 0 0 0 0 0 0 0 0 0 0 0 0 0 0 0 127 0" result="hardAlpha"/>
<feOffset dx="-6" dy="7"/>
<feGaussianBlur stdDeviation="5.5"/>
<feColorMatrix type="matrix" values="0 0 0 0 0.316369 0 0 0 0 0.366988 0 0 0 0 0.353496 0 0 0 0.25741 0"/>
<feBlend mode="normal" in2="BackgroundImageFix" result="effect1_dropShadow_555_972"/>
<feColorMatrix in="SourceAlpha" type="matrix" values="0 0 0 0 0 0 0 0 0 0 0 0 0 0 0 0 0 0 127 0" result="hardAlpha"/>
<feOffset dx="-3" dy="3"/>
<feGaussianBlur stdDeviation="2.5"/>
<feColorMatrix type="matrix" values="0 0 0 0 0 0 0 0 0 0 0 0 0 0 0 0 0 0 0.144615 0"/>
<feBlend mode="normal" in2="effect1_dropShadow_555_972" result="effect2_dropShadow_555_972"/>
<feBlend mode="normal" in="SourceGraphic" in2="effect2_dropShadow_555_972" result="shape"/>
</filter>
</defs>
</svg>
